Dominus_Dark_Funeral/symbolic/actions/system-run-symbolic.svg

<svg xmlns="http://www.w3.org/2000/svg" width="24" height="24"><path d="M14.452 1.332l-.248 1.704a7.168 7.168 0 0 0-.271-.137L10.97.473h-.965l.697 1.767c-.16.006-.319.014-.476.03l-3.27-.618-.85.456L7.436 3.21a6.974 6.974 0 0 0-.511.335L3.76 4.637l-.512.818 1.697.297a6.862 6.862 0 0 0-.358.72l-2.125 2.55-.015.964 1.609-.626c.006.225.023.447.05.665l-.557 3.297.472.841 1.075-1.35c.113.18.233.354.36.522l.181 1.192h9.874l2.79-1.048.49-.831-1.703-.25c.086-.162.166-.327.24-.497l2.149-2.538.023-.964-1.613.612c-.004-.18-.01-.36-.027-.536l.65-3.262-.447-.855-1.114 1.318a6.865 6.865 0 0 0-.485-.72l-1.181-3.134zm-3.481 8.79a.965.965 0 1 1 0-1.93.965.965 0 0 1 0 1.93zM.928 15.434v8.16h19.948v-8.16h-15.1zm18.758-3.684l2.833-2.236-1.268-.597zm3.37.338l-3.046 1.095 3.605.19z" fill="gray"/></svg>

<?xml version="1.0" encoding="UTF-8" standalone="no"?>
<svg
   xmlns:dc="http://purl.org/dc/elements/1.1/"
   xmlns:cc="http://creativecommons.org/ns#"
   xmlns:rdf="http://www.w3.org/1999/02/22-rdf-syntax-ns#"
   xmlns:svg="http://www.w3.org/2000/svg"
   xmlns="http://www.w3.org/2000/svg"
   xmlns:sodipodi="http://sodipodi.sourceforge.net/DTD/sodipodi-0.dtd"
   xmlns:inkscape="http://www.inkscape.org/namespaces/inkscape"
   width="24"
   height="24"
   version="1.1"
   id="svg4"
   sodipodi:docname="system-run-symbolic.svg"
   inkscape:version="0.92.4 (5da689c313, 2019-01-14)">
  <metadata
     id="metadata10">
    <rdf:RDF>
      <cc:Work
         rdf:about="">
        <dc:format>image/svg+xml</dc:format>
        <dc:type
           rdf:resource="http://purl.org/dc/dcmitype/StillImage" />
        <dc:title></dc:title>
      </cc:Work>
    </rdf:RDF>
  </metadata>
  <defs
     id="defs8" />
  <sodipodi:namedview
     pagecolor="#ffffff"
     bordercolor="#666666"
     borderopacity="1"
     objecttolerance="10"
     gridtolerance="10"
     guidetolerance="10"
     inkscape:pageopacity="0"
     inkscape:pageshadow="2"
     inkscape:window-width="1112"
     inkscape:window-height="480"
     id="namedview6"
     showgrid="false"
     inkscape:zoom="9.8333333"
     inkscape:cx="1.0677966"
     inkscape:cy="12"
     inkscape:window-x="0"
     inkscape:window-y="25"
     inkscape:window-maximized="0"
     inkscape:current-layer="svg4" />
  <path
     d="M 14.452,1.332 14.204,3.036 A 7.168,7.168 0 0 0 13.933,2.899 L 10.97,0.473 h -0.965 l 0.697,1.767 c -0.16,0.006 -0.319,0.014 -0.476,0.03 L 6.956,1.652 6.106,2.108 7.436,3.21 A 6.974,6.974 0 0 0 6.925,3.545 L 3.76,4.637 3.248,5.455 4.945,5.752 A 6.862,6.862 0 0 0 4.587,6.472 L 2.462,9.022 2.447,9.986 4.056,9.36 c 0.006,0.225 0.023,0.447 0.05,0.665 l -0.557,3.297 0.472,0.841 1.075,-1.35 c 0.113,0.18 0.233,0.354 0.36,0.522 l 0.181,1.192 h 9.874 l 2.79,-1.048 0.49,-0.831 -1.703,-0.25 c 0.086,-0.162 0.166,-0.327 0.24,-0.497 L 19.477,9.363 19.5,8.399 17.887,9.011 C 17.883,8.831 17.877,8.651 17.86,8.475 L 18.51,5.213 18.063,4.358 16.949,5.676 A 6.865,6.865 0 0 0 16.464,4.956 L 15.283,1.822 Z m -3.481,8.79 a 0.965,0.965 0 1 1 0,-1.93 0.965,0.965 0 0 1 0,1.93 z M 0.928,15.434 v 8.16 h 19.948 v -8.16 H 5.776 Z M 19.686,11.75 22.519,9.514 21.251,8.917 Z m 3.37,0.338 -3.046,1.095 3.605,0.19 z"
     id="path2"
     inkscape:connector-curvature="0"
     style="fill:#808080" />
</svg>
